public/assets/icons/user-remove.svg

<svg xmlns="http://www.w3.org/2000/svg" viewBox="-2 -2 24 24" width="24" height="24" preserveAspectRatio="xMinYMin" class="jam jam-user-remove"><path d='M3.534 10.07a1 1 0 1 1 .733 1.86A3.579 3.579 0 0 0 2 15.26V17a1 1 0 0 0 1 1h8a1 1 0 0 0 1-1v-1.647a3.658 3.658 0 0 0-2.356-3.419 1 1 0 1 1 .712-1.868A5.658 5.658 0 0 1 14 15.353V17a3 3 0 0 1-3 3H3a3 3 0 0 1-3-3v-1.74a5.579 5.579 0 0 1 3.534-5.19zM7 0a4 4 0 0 1 4 4v2a4 4 0 1 1-8 0V4a4 4 0 0 1 4-4zm0 2a2 2 0 0 0-2 2v2a2 2 0 1 0 4 0V4a2 2 0 0 0-2-2zm10.414 4l1.414 1.414a1 1 0 0 1-1.414 1.414L16 7.414l-1.414 1.414a1 1 0 1 1-1.414-1.414L14.586 6l-1.414-1.414a1 1 0 0 1 1.414-1.414L16 4.586l1.414-1.414a1 1 0 1 1 1.414 1.414L17.414 6z'/></svg>

<svg xmlns="http://www.w3.org/2000/svg" width="19.121" height="20" viewBox="0 0 19.121 20">
  <path id="user-remove" d="M3.534,10.07a1,1,0,1,1,.733,1.86A3.579,3.579,0,0,0,2,15.26V17a1,1,0,0,0,1,1h8a1,1,0,0,0,1-1V15.353a3.658,3.658,0,0,0-2.357-3.419,1,1,0,1,1,.713-1.868A5.658,5.658,0,0,1,14,15.353V17a3,3,0,0,1-3,3H3a3,3,0,0,1-3-3V15.26a5.579,5.579,0,0,1,3.533-5.19ZM7,0a4,4,0,0,1,4,4V6A4,4,0,0,1,3,6V4A4,4,0,0,1,7,0ZM7,2A2,2,0,0,0,5,4V6A2,2,0,0,0,9,6V4A2,2,0,0,0,7,2ZM17.414,6l1.414,1.414a1,1,0,1,1-1.414,1.414L16,7.414,14.586,8.828a1,1,0,1,1-1.414-1.414L14.586,6,13.172,4.586a1,1,0,1,1,1.414-1.414L16,4.586l1.414-1.414a1,1,0,1,1,1.414,1.414Z" fill="#f2f2f2"/>
</svg>
